!!! OTL: Berkowitz572
!!! Chapter: 1
!!! Section: V
!!! Page: 155
!!! Mode: 
!!! Encoder: CD
**kern
*staff1
=1-
*clefF4
*k[]
*C:
*M4/4
4r
4F\
4F\
4F\
=2
2G-\
2A-\
=3
2D-\
[2C/
=4
4C/]
4BB-/
[2E-\
=5
4E-\]
4E-\
4B-\
4A\
=6
!!linebreak:original
2.E\
4E-\
=7
2B-\
[2A\
=8
2A\]
4d\
4c\
=9
2.F\
4E-\
=10
4B-\
4A-\
4B-\
4Bn\
=11
1E
=12
!!linebreak:original
4r
4E\
4A\
4G#\
=13
4D#\
4C#/
4F#\
[4E\
=14
4E\]
4AA/
4AA/
4AA/
=15
[1BB
=16
1BB]
==
*-
